X:176
T:Glory Of The Kitchen,The. (p)1665.PLFD.176
M:4/4
L:1/4
Q:1/2=100
S:Playford, Dancing Master,2nd Supp. to 3rd Ed.,1665
O:England
H:166
Z:Chris Partington
K:Bb
FABd/e/|fFBF|ff(g/f/)(e/d/)|c2B2:|
|:b>baf|g>gfB|ed/c/dg|g>^fg2:|
